!!!COM: Bach, Johann Sebastian
!!!OPR: Joh. Seb. Bachs vierstimmige Choralgesänge
!!!XEN: Four-part Chorales
!!!OTL: 70. Gott sei uns gnädig
!!!SCT: BWV 323
!!!SCA: Thematisch-systematisches Verzeichnis der musikalischen Werke Johann Sebastian Bach: Bach-Werke-Verzeichnis (Schmieder)
!!!YOR: Bach Gesellschaft Edition xxxix
!!!ENC: Steven Rasmussen
!!!CDT: 1685/3//-1750/7/28/
!!!OCY: Deutschland
!!!YEC: Copyright (c) 1994, 2000 Center for Computer Assisted Research in the Humanities
!!!YEM: Rights to all derivative editions reserved
!!!YEN: United States of America
**kern	**silbe	**kern	**silbe	**kern	**silbe	**kern	**silbe
*I:[SOPRANO]	*I:[SOPRANO]	*I:[ALTO]	*I:[ALTO]	*I:[TENORE]	*I:[TENORE]	*I:[BASSO]	*I:[BASSO]
*clefG2	*	*clefG2	*	*clefGv2	*	*clefF4	*
*k[f#c#g#]	*	*k[f#c#g#]	*	*k[f#c#g#]	*	*k[f#c#g#]	*
*f#:	*	*f#:	*	*f#:	*	*f#:	*
*M4/4	*	*M4/4	*	*M4/4	*	*M4/4	*
=1-	=1-	=1-	=1-	=1-	=1-	=1-	=1-
2cc#\	Gott	2f#/	.	2A/	.	2F#\	.
2ee\	.	2e/	.	2B\	.	2G#\	.
=2	=2	=2	=2	=2	=2	=2	=2
4cc#\	sei	4e/	.	4c#\	.	4A\	.
4cc#\	uns	4e#/	.	4B\	.	4G#\	.
4cc#\	gn\a3-	4f#/	.	4A/	.	4F#\	.
4cc#\	-dig	4g#/	.	4G#/	.	4E#\	.
=3	=3	=3	=3	=3	=3	=3	=3
2dd\	und	(4f#/	.	(4A/	.	(4F#\	.
.	.	2e/)	.	2B\)	.	4G#\)	.
2cc#\	barm-	.	.	.	.	(4A\	.
.	.	4f#/	.	4A/	.	4F#\)	.
=4	=4	=4	=4	=4	=4	=4	=4
1b\	-her-	2f#/	.	2A/	.	4D\	.
.	.	.	.	.	.	4BB/	.
.	.	2e/	.	2G#/	.	2E\	.
=5	=5	=5	=5	=5	=5	=5	=5
1a;/	-zig	1e;/	.	1A;/	.	1AA;/	.
=6	=6	=6	=6	=6	=6	=6	=6
2cc#\	und	1e/	.	2A/	.	(4AA/	und
.	.	.	.	.	.	4BB/)	.
2ee\	.	.	.	(2A/	geb'	4C#/	geb'
.	.	.	.	.	.	4D\	uns
=7	=7	=7	=7	=7	=7	=7	=7
4b\	geb'	4e/	.	4G#/)	.	2E\	sei-
4b\	uns	4g#/	.	4B\	uns	.	.
4b\	sei-	4f#/	.	4A/	sei-	2D#\	-nen
4b\	-nen	4a/	.	4f#\	-nen	.	.
=8	=8	=8	=8	=8	=8	=8	=8
2b\	g\o3tt-	2g#/	g\o3tt-	2e\	g\o3tt-	2E\	g\o3tt-
4f#/	-li-	[2f#/	-li-	2B\	.	2D\	-li-
4g#/	-chen	.	.	.	.	.	.
=9	=9	=9	=9	=9	=9	=9	=9
2a/	Se-	2.f#/]	.	2c#\	-li-	1C#/	-chen
2g#/	.	.	.	2B\	-chen	.	.
.	.	4e#/	-chen	.	.	.	.
=10	=10	=10	=10	=10	=10	=10	=10
[1f#/	-gen.	2c#/	Se-	2A#/	Se-	4FF#/	Se-
.	.	.	.	.	.	4E\	.
.	.	[2d/	.	[2B\	.	4D\	.
.	.	.	.	.	.	4BB/	.
=11	=11	=11	=11	=11	=11	=11	=11
1f#;/]	.	2d/]	.	2B\]	.	1FF#;/	-gen.
.	.	2c#;/	-gen.	2A#;/	-gen.	.	.
==|!	==|!	==|!	==|!	==|!	==|!	==|!	==|!
*-	*-	*-	*-	*-	*-	*-	*-
!!!RWG: Key is interpreted using the Humdrum key tool.
!!!END: 1994/06/06/
!!!KEY: 796242603
!!!EMD: Converted from MuseData to Humdrum Dec 19, 2000, by Andreas Kornstaedt using muse2kern.
